icons/black/banking.svg

<?xml version="1.0" encoding="UTF-8"?><svg id="a" xmlns="http://www.w3.org/2000/svg" viewBox="0 0 48 48"><defs><style>.b,.c{fill:none;stroke:#000;stroke-linecap:round;stroke-linejoin:round;}.c{stroke-width:1px;}</style></defs><path class="b" d="M38.5,5.5H9.5c-2.2091,0-4,1.7909-4,4v29c0,2.2091,1.7909,4,4,4h29c2.2091,0,4-1.7909,4-4V9.5c0-2.2091-1.7909-4-4-4Z"/><path class="b" d="M20.646,24.1c.9453,0,1.7188.7735,1.7188,1.7188s-.7735,1.7188-1.7188,1.7188h-2.836v-6.8751h2.836c.9453,0,1.7188.7735,1.7188,1.7188s-.7735,1.7188-1.7188,1.7188h0Z"/><line class="b" x1="20.646" y1="24.1" x2="17.81" y2="24.1"/><path class="b" d="M12.179,25.16c0,1.2891-1.0313,2.3203-2.3203,2.3203s-2.3203-1.0313-2.3203-2.3203v-2.3203c0-1.2891,1.0313-2.3203,2.3203-2.3203s2.2344,1.0313,2.2344,2.3203"/><path class="b" d="M29.013,25.16c0,1.2891-1.0313,2.3203-2.3203,2.3203s-2.3203-1.0313-2.3203-2.3203v-2.3203c0-1.2891,1.0313-2.3203,2.3203-2.3203s2.2344,1.0313,2.2344,2.3203"/><line class="b" x1="14.018" y1="27.481" x2="16.08" y2="27.481"/><line class="b" x1="14.018" y1="20.605" x2="16.08" y2="20.605"/><line class="b" x1="15.049" y1="20.605" x2="15.049" y2="27.481"/><path class="b" d="M36.063,22.364l-1.3741,1.6362,1.3741,1.6362M36.063,22.364l1.3741,1.6362-1.3741,1.6362"/><path class="c" d="M37.4576,20.3045h-2.7906l-3.0859,3.6959,3.0859,3.6959h2.7906l3.088-3.6959-3.088-3.6959Z"/></svg>

<svg xmlns="http://www.w3.org/2000/svg" viewBox="0 0 48 48"><defs><style>.a,.b{fill:none;stroke:#000;stroke-linecap:round;stroke-linejoin:round;}</style></defs><path class="a" d="M40.5,5.5H7.5a2,2,0,0,0-2,2v33a2,2,0,0,0,2,2h33a2,2,0,0,0,2-2V7.5A2,2,0,0,0,40.5,5.5Z"/><path class="a" d="M20.646,24.1a1.7188,1.7188,0,0,1,0,3.4376H17.81V20.6625h2.836a1.7188,1.7188,0,0,1,0,3.4376Z"/><line class="a" x1="20.646" y1="24.1" x2="17.81" y2="24.1"/><path class="a" d="M12.179,25.16a2.32,2.32,0,0,1-4.6406,0V22.84a2.3107,2.3107,0,0,1,2.32-2.32,2.2393,2.2393,0,0,1,2.2344,2.32"/><path class="a" d="M29.013,25.16a2.32,2.32,0,0,1-4.6406,0V22.84a2.3107,2.3107,0,0,1,2.32-2.32,2.2393,2.2393,0,0,1,2.2344,2.32"/><line class="a" x1="14.018" y1="27.481" x2="16.08" y2="27.481"/><line class="a" x1="14.018" y1="20.605" x2="16.08" y2="20.605"/><line class="a" x1="15.049" y1="20.605" x2="15.049" y2="27.481"/><path class="a" d="M36.063,22.364,34.6889,24l1.3741,1.6362m0-3.2724L37.4371,24,36.063,25.6364"/><path class="b" d="M37.4576,20.3045H34.667L31.5811,24l3.0859,3.696h2.7906L40.5456,24Z"/></svg>
